icons/investigation-16.svg

<?xml version="1.0" encoding="UTF-8"?><svg id="icons" xmlns="http://www.w3.org/2000/svg" viewBox="0 0 16 16"><path d="M15,3h-3v-.5c0-.82715-.67285-1.5-1.5-1.5H6.5c-.82715,0-1.5,.67285-1.5,1.5v.5H2c-.55176,0-1,.44873-1,1V14c0,.55127,.44824,1,1,1H15c.55176,0,1-.44873,1-1V4c0-.55127-.44824-1-1-1Zm-5,4v1h-3v-1h-2v1h-.45898c-.98145,0-1.81055-.70264-1.97266-1.6709l-.3877-2.3291H14.81934l-.3877,2.32861c-.16211,.96875-.99121,1.67139-1.97266,1.67139h-.45898v-1h-2ZM6,2.5c0-.27588,.22461-.5,.5-.5h4c.27539,0,.5,.22412,.5,.5v.5H6v-.5ZM2,14V7.58472c.53314,.8573,1.47467,1.41528,2.54102,1.41528h.45898v1h2v-1h3v1h2v-1h.45898c1.06635,0,2.00787-.55798,2.54102-1.41547v6.41547H2Z"/><path fill="none" d="M0 0h16v16H0z"/></svg>

<svg xmlns="http://www.w3.org/2000/svg" viewBox="0 0 16 16"><path d="M15 3h-3v-.5c0-.827-.673-1.5-1.5-1.5h-4C5.673 1 5 1.673 5 2.5V3H2c-.552 0-1 .449-1 1v10c0 .551.448 1 1 1h13c.552 0 1-.449 1-1V4c0-.551-.448-1-1-1zm-5 4v1H7V7H5v1h-.459c-.981 0-1.81-.703-1.973-1.67L2.181 4h12.638l-.387 2.329A1.994 1.994 0 0 1 12.459 8H12V7h-2zM6 2.5a.5.5 0 0 1 .5-.5h4a.5.5 0 0 1 .5.5V3H6v-.5zM2 14V7.585A2.985 2.985 0 0 0 4.541 9H5v1h2V9h3v1h2V9h.459A2.985 2.985 0 0 0 15 7.585V14H2z"/><path fill="none" d="M0 0h16v16H0z"/></svg>
